assets/sonr-icons/media-pause.svg

<svg xmlns="http://www.w3.org/2000/svg" width="24" height="24" fill="none"><path fill="currentColor" d="M3.218 4.092C3 4.52 3 5.08 3 6.2v11.6c0 1.12 0 1.68.218 2.108.192.377.498.683.874.874C4.52 21 5.08 21 6.2 21h.6c1.12 0 1.68 0 2.108-.218.377-.192.683-.498.874-.874C10 19.481 10 18.92 10 17.8V6.2c0-1.12 0-1.68-.218-2.108a2 2 0 0 0-.874-.874C8.48 3 7.92 3 6.8 3h-.6c-1.12 0-1.68 0-2.108.218a2 2 0 0 0-.874.874m11 0C14 4.52 14 5.08 14 6.2v11.6c0 1.12 0 1.68.218 2.108.192.377.498.683.874.874.428.218.988.218 2.108.218h.6c1.12 0 1.68 0 2.108-.218a2 2 0 0 0 .874-.874C21 19.481 21 18.92 21 17.8V6.2c0-1.12 0-1.68-.218-2.108a2 2 0 0 0-.874-.874C19.48 3 18.92 3 17.8 3h-.6c-1.12 0-1.68 0-2.108.218a2 2 0 0 0-.874.874"/></svg>

<svg xmlns="http://www.w3.org/2000/svg" width="24" height="24" fill="none" viewBox="0 0 24 24"><path fill="#000" d="M3.218 4.092C3 4.52 3 5.08 3 6.2V17.8C3 18.92 3 19.48 3.218 19.908C3.41 20.285 3.716 20.591 4.092 20.782C4.52 21 5.08 21 6.2 21H6.8C7.92 21 8.48 21 8.908 20.782C9.285 20.59 9.591 20.284 9.782 19.908C10 19.481 10 18.92 10 17.8V6.2C10 5.08 10 4.52 9.782 4.092C9.59 3.716 9.284 3.41 8.908 3.218C8.48 3 7.92 3 6.8 3H6.2C5.08 3 4.52 3 4.092 3.218C3.715 3.41 3.409 3.716 3.218 4.092ZM14.218 4.092C14 4.52 14 5.08 14 6.2V17.8C14 18.92 14 19.48 14.218 19.908C14.41 20.285 14.716 20.591 15.092 20.782C15.52 21 16.08 21 17.2 21H17.8C18.92 21 19.48 21 19.908 20.782C20.285 20.59 20.59 20.284 20.782 19.908C21 19.481 21 18.92 21 17.8V6.2C21 5.08 21 4.52 20.782 4.092C20.59 3.716 20.284 3.41 19.908 3.218C19.48 3 18.92 3 17.8 3H17.2C16.08 3 15.52 3 15.092 3.218C14.715 3.41 14.409 3.716 14.218 4.092Z"/></svg>
